X:1
T:CAN FRIENDS FORGET?
T:CAN FRIENDS FORGET?
T:Milller & Beacham
T:1856
T:1856
T:1856
C:Milller & Beacham
Z:1856
%%score 1 { 2 | 3 }
L:1/8
Q:1/4=92
M:3/4
K:F
V:1 treble nm="Voice"
V:2 treble nm="Piano"
V:3 bass 
V:1
"^Andante" z6 | z6 | z6 | z6 | z6 |] z z z z z c | cd c2 A2 | A2 FG F2 | GA B2 E2 | G2 F2 z c | %10
w: |||||Can|friend for- get? Can|friends for- get? The|blissful * ties that|bound them. The|
 cd c2 A2 | FG F2 F2 | GA B2 E2 | G2 F2 z F | EG B2 G2 | cB A2 F2 | EG B2 G2 | c2 A2 z c | %18
w: happy * hours when|first then met, With|peace and hope a|round them can|I for- get? Can|I for- get? The|charm of friend- ship|e- ver a|
 cd c2 A2 | FG F2 F2 | GA B2 E2 | G2 F2 z2 | z6 | z6 | z6 | z6 |] z z z z z c | cd c2 A2 | %28
w: round my heart it|ling- ers yet. A|tie I would not|sev- er|||||When|twi- light sha- dows|
 FG F2 F2 | GA B2 E2 | G2 F2 z c | cd c2 A2 | FG F2 F2 | GA B2 E2 | G2 F2 z F | EG B2 G2 | %36
w: veil the ground. When|sad and bro- ken|heart- ed. I'll|sit me down to|gaze a- round, on|scenes and years de-|part- ed; Fond|mem- 'ry to my|
 cB A2 F2 | EG B2 G2 | c2 A2 z c | cd c2 A2 | FG F2 F2 | GA B2 E2 | G2 F2 z2 | z6 | z6 | z6 |] %46
w: heart shall bring, That|friend I loved sin-|cer- est, And|in my ears a-|gain shall ring That|voice I val- ue|dear- est.||||
V:2
 z z z z z c' | [ac'][bd'] [ac']2 [fa]2 | [Af][Bf] [Af]2 [Af]2 | ([eg][fa] [gb][ac'] [bd'][c'e']) | %4
 !trill(!T[fac'f']2 [A,CF]2 z2 |] z z [A,CF]2 [A,CF]2 | z z [A,CF]2 [A,CF]2 | z z [A,CF]2 [A,CF]2 | %8
 z z [B,CE]2 [B,CE]2 | z z [A,CF]2 [A,CF]2 | z z [A,CF]2 [A,CF]2 | z z [A,CF]2 [A,CF]2 | %12
 z z [B,CE]2 [B,CE]2 | z z [A,CF]2 z z | z z [B,CE]2 [B,CE]2 | z z [A,CF]2 [A,CF]2 | %16
 z z [B,CE]2 [B,CE]2 | z z [A,CF]2 [A,CF]2 | z z [A,CF]2 [A,CF]2 | z z [A,CF]2 [A,CF]2 | %20
 z z [B,CE]2 [B,CE]2 | z z [A,CF]2 z c' | [fac']d' [fac']2 [fac'f']2 | [fa][fac'] [fa]2 [fac']2 | %24
 (ga bc' d'e') | f' z !trill(!T[fac'f'] !trill)!z z2 |] z z z z z c | z z [A,CF]2 [A,CF]2 | %28
 z z [A,CF]2 [A,CF]2 | z z [B,CE]2 [B,CE]2 | z z [A,CF]2 [A,CF]2 | z z [A,CF]2 [A,CF]2 | %32
 z z [A,CF]2 [A,CF]2 | z z [B,CE]2 [B,CE]2 | z z [A,CF]2 z2 | z z [B,CE]2 [B,CE]2 | %36
 z z [A,CF]2 [A,CF]2 | z z [B,CE]2 [B,CE]2 | z z [A,CF]2 z2 | z z [A,CF]2 [A,CF]2 | %40
 z z [A,CF]2 [A,CF]2 | z z [B,CE]2 [B,CE]2 | z z [A,CF]2 z c' | [fac']d' [fa]2 [fac']2 | %44
 ga bc' d'e' | f' z !trill(!T[fac'f'] z z2 |] %46
V:3
 [F,,F,]4 z2 | [F,,F,]2 [A,CF]2 [A,CF]2 | [F,,F,]2 [A,CF]2 [A,CF]2 | [C,C]2 [CGB]2 [CGB]2 | %4
 [FA]2 [F,,F,]2 z2 |] [F,,F,]4 z2 | [F,,F,]4 z2 | [F,,F,]4 z2 | [C,,C,]4 z2 | [F,,F,]4 z2 | %10
 [F,,F,]4 z2 | [F,,F,]4 z2 | [C,,C,]4 z2 | [F,,F,]4 z2 | [C,,C,]4 z2 | [F,,F,]4 z2 | [C,,C,]4 z2 | %17
 [F,,F,]4 z2 | [F,,F,]4 z2 | [F,,F,]4 z2 | [C,,C,]4 z2 | [F,,F,]4 z2 | F,2 [CFA]2 [CFA]2 | %23
 F,2 [CFA]2 [CFA]2 | [C,C][Aa] [CGB]2 [CGB]2 | [FA]2 z [F,,F,] z2 |] [F,,F,]4 z2 | [F,,F,]4 z2 | %28
 [F,,F,]4 z2 | [C,,C,]4 z2 | [F,,F,]4 z2 | [F,,F,]4 z2 | [F,,F,]4 z2 | [C,,C,]4 z2 | [F,,F,]4 z2 | %35
 [C,,C,]4 z2 | [F,,F,]4 z2 | [C,,C,]4 z2 | [F,,F,]4 z2 | [F,,F,]4 z2 | [F,,F,]4 z2 | [C,,C,]4 z2 | %42
 [F,,F,]4 z2 | F,2 [CFA]2 [CFA]2 | F,2 [CFA]2 [CFA]2 | [FA]2 [F,,F,]2 z2 |] %46

